icons/outline/adjustments-question.svg

<!--
category: System
tags: [settings, inquire, ask, query, probe, interrogate, wonder, puzzle, doubt, uncertain]
version: "2.10"
unicode: "f808"
-->
<svg
  xmlns="http://www.w3.org/2000/svg"
  width="24"
  height="24"
  viewBox="0 0 24 24"
  fill="none"
  stroke="currentColor"
  stroke-width="2"
  stroke-linecap="round"
  stroke-linejoin="round"
>
  <path d="M4 10a2 2 0 1 0 4 0a2 2 0 0 0 -4 0m2 -6v4m0 4v8m7.577 -5.23a2 2 0 1 0 .117 2.295m-1.694 -13.065v10m7 8v.01m0 -3.01a2.003 2.003 0 0 0 .914 -3.782a1.98 1.98 0 0 0 -2.414 .483m-5.5 2.299v2m4 -13a2 2 0 1 0 4 0a2 2 0 0 0 -4 0m2 -3v1m0 4v2" />
</svg>

<!--
category: System
tags: [settings, inquire, ask, query, probe, interrogate, wonder, puzzle, doubt, uncertain]
version: "2.10"
unicode: "f808"
-->
<svg
  xmlns="http://www.w3.org/2000/svg"
  width="24"
  height="24"
  viewBox="0 0 24 24"
  fill="none"
  stroke="currentColor"
  stroke-width="2"
  stroke-linecap="round"
  stroke-linejoin="round"
>
    <path d="M4 10a2 2 0 1 0 4 0a2 2 0 0 0 -4 0M6 4v4M6 12v8M13.577 14.77a2 2 0 1 0 .117 2.295M12 4v10M19 22v.01M19 19a2.003 2.003 0 0 0 .914 -3.782a1.98 1.98 0 0 0 -2.414 .483M12 18v2M16 7a2 2 0 1 0 4 0a2 2 0 0 0 -4 0M18 4v1M18 9v2" />
</svg>
